public/images/broadcasters/ua-pbc.svg

<svg fill="none" height="48" viewBox="0 0 154 48" width="154" xmlns="http://www.w3.org/2000/svg" xmlns:xlink="http://www.w3.org/1999/xlink"><clipPath id="a"><path d="m0 0h154v48h-154z"/></clipPath><g clip-path="url(#a)"><g fill="#fff"><path d="m35.4882 26.5776h3.8151l4.0279 9.8688h.1697l4.0302-9.8688h3.8151v14.688h-2.9999v-9.5592h-.1219l-3.7865 9.4872h-2.0438l-3.7864-9.5232h-.1219v9.5952h-3v-14.688z"/><path d="m66.927 33.9216c0 1.6008-.3012 2.964-.9036 4.0872s-1.4199 1.98-2.4573 2.5704c-1.0351.5928-2.1992.8856-3.4876.8856-1.2885 0-2.4669-.2952-3.502-.888-1.0327-.5928-1.8502-1.452-2.4478-2.5728-.6-1.1232-.9012-2.484-.9012-4.08s.2988-2.964.9012-4.0896c.6-1.1232 1.4151-1.98 2.4478-2.5704 1.0351-.5904 2.1992-.8856 3.502-.8856 1.3027 0 2.4525.2952 3.4876.8856 1.035.5904 1.8549 1.4472 2.4573 2.5704s.9036 2.4864.9036 4.0896zm-3.1338 0c0-1.0392-.153-1.9128-.4614-2.6256-.306-.7128-.7386-1.2528-1.2956-1.6224-.557-.3672-1.2095-.552-1.9553-.552-.7459 0-1.4008.1848-1.9578.552s-.9896.9096-1.2956 1.6224c-.3084.7128-.459 1.5864-.459 2.6256s.153 1.9104.459 2.6256c.3084.7128.741 1.2528 1.2956 1.62.557.3672 1.2096.552 1.9578.552s1.3983-.1848 1.9553-.552c.5594-.3672.9896-.9096 1.2956-1.62.3084-.7128.4614-1.5864.4614-2.6256z"/><path d="m68.8105 41.2632v-14.688h5.8566c1.078 0 1.9744.1608 2.6916.4824.7195.3216 1.2597.7632 1.6231 1.3296.3609.5664.5426 1.2168.5426 1.9536 0 .5736-.1124 1.0776-.3418 1.5096-.2295.432-.5427.7848-.9395 1.0608-.3968.2736-.851.468-1.3601.5832v.144c.5569.024 1.0781.1824 1.5681.4728.4876.2928.8844.7008 1.188 1.2216.3036.5232.459 1.1472.459 1.8696 0 .78-.1936 1.4736-.5761 2.0832s-.9466 1.092-1.6948 1.4448-1.6685.5304-2.7657.5304h-6.2486zm3.0932-8.5416h2.2925c.4231 0 .8031-.0744 1.133-.2256.3299-.1488.5928-.3624.7865-.6408.1936-.2784.2892-.6096.2892-.9984 0-.5304-.1888-.9576-.5618-1.284-.3729-.3264-.9035-.4872-1.5896-.4872h-2.3498zm0 6.0024h2.5219c.8606 0 1.4893-.1656 1.8861-.4968.3944-.3312.5928-.7752.5928-1.3296 0-.408-.098-.7656-.294-1.0776-.1937-.3096-.4733-.5544-.8319-.732-.3609-.1776-.7864-.2664-1.2836-.2664h-2.5936v3.9024z"/><path d="m81.3101 41.2632v-2.496l.4135-.0336c.5331-.0432.9633-.2472 1.2932-.612.3299-.3672.5737-.9504.741-1.7592.1626-.8064.2702-1.8888.318-3.2496l.2414-6.5352h9.9298v14.688h-3.0072v-12.1992h-4.0517l-.2271 5.1144c-.0765 1.644-.2701 2.988-.5833 4.0296-.3107 1.0416-.8079 1.812-1.4868 2.3088-.6765.4968-1.6064.7464-2.7801.7464h-.8007z"/><path d="m96.3862 41.2632v-14.688h9.8578v2.5608h-6.7646v3.5016h6.2586v2.5584h-6.2586v3.5064h6.7936v2.5608h-9.8844z"/><path d="m108.14 41.2632v-14.688h3.093v6.06h6.28v-6.06h3.086v14.688h-3.086v-6.0672h-6.28v6.0672z"/><path d="m122.624 41.2632v-14.688h3.093v6.06h6.279v-6.06h3.086v14.688h-3.086v-6.0672h-6.279v6.0672z"/><path d="m140.26 34.5792h3.337l-3.557 6.684h-3.414l3.636-6.684zm7.893 6.684h-3.086v-12.1488h-2.087c-.595 0-1.087.0864-1.482.2616-.392.1752-.688.4296-.882.7632-.194.336-.294.7464-.294 1.2336s.098.8856.294 1.212.488.5688.88.732c.389.1632.879.2424 1.472.2424h3.356v2.496h-3.858c-1.118 0-2.075-.1848-2.871-.5592-.796-.372-1.403-.9096-1.821-1.6104s-.629-1.5384-.629-2.5128.206-1.8168.619-2.5368c.411-.72 1.009-1.2768 1.793-1.6704.782-.3936 1.726-.5928 2.833-.5928h5.765v14.688z"/><path d="m42.7408 20.8703c-4.1187 0-7.0255-3.0864-7.0255-7.5576 0-4.47119 2.9498-7.60079 7.047-7.60079 3.3035 0 5.7298 1.9512 6.5043 5.16479l-2.9689.252c-.502-1.53359-1.8-2.49839-3.4924-2.49839-2.2805 0-3.8677 1.84559-3.8677 4.66079s1.5896 4.6608 3.8677 4.6608c1.6924 0 2.9904-.9648 3.4924-2.4984l2.9689.252c-.7745 3.2112-3.1984 5.1648-6.5258 5.1648z"/><path d="m53.8253 20.8272c-.8366 0-1.6733-.2112-2.3832-.6288l.4805-2.7096c.6693.3984 1.3171.6096 1.8597.6096.7315 0 1.3602-.42 1.7809-1.1976l-5.8972-10.95842h3.404l3.9537 7.78802 3.4303-7.78802h3.2629l-5.4573 11.75762c-.9204 2.016-2.4885 3.1272-4.4343 3.1272z"/><path d="m70.6993 20.8703c-4.1187 0-7.0255-3.0864-7.0255-7.5576 0-4.47119 2.9498-7.60079 7.047-7.60079 3.3035 0 5.7298 1.9512 6.5019 5.16479l-2.9689.252c-.502-1.53359-1.8-2.49839-3.4924-2.49839-2.2805 0-3.8677 1.84559-3.8677 4.66079s1.5896 4.6608 3.8677 4.6608c1.6924 0 2.9904-.9648 3.4924-2.4984l2.9689.252c-.7721 3.2112-3.1984 5.1648-6.5234 5.1648z"/><path d="m79.4624 5.94238h12.356v14.69762h-3.0525v-12.13682h-6.2509v12.13682h-3.0526z"/><path d="m113.268 5.94238v14.69522h-3.053v-12.13442h-4.747v1.51202c0 7.8936-.94 10.812-3.471 10.812-.564 0-1.422-.1464-2.1347-.3768l.2107-2.6448c.313.1032.71.1464.898.1464 1.234 0 1.612-2.0568 1.612-8.83922v-3.1704h10.687z"/><path d="m97.5648 5.94238h-3.0526v14.69522h3.0526z"/><path d="m118.847 13.9008v4.1784h2.531c1.317 0 2.197-.8616 2.197-2.1s-.899-2.0784-2.238-2.0784h-2.488zm-3.053-7.95602h3.053v5.39522h2.971c2.907 0 4.977 1.932 4.977 4.6392s-2.07 4.6608-4.934 4.6608h-6.065v-14.69762z"/><path d="m128.858 5.94238h3.055v5.96402h6.334v-5.96402h3.053v14.69762h-3.053v-6.1728h-6.334v6.1728h-3.055z"/><path d="m143.838 5.94238h10.059v2.5608h-7.006v3.38162h6.294v2.5608h-6.294v3.6312h7.109v2.5632h-10.162z"/></g><path d="m23.9041 24v24c-13.1138 0-23.9041-10.8336-23.9041-24s10.7903-24 23.9041-24z" fill="#41cfff"/></g></svg>

<svg width="154" height="48" viewBox="0 0 154 48" fill="none" xmlns="http://www.w3.org/2000/svg">
<g clip-path="url(#clip0_58_25)">
<path d="M35.4882 26.5776H39.3033L43.3312 36.4464H43.5009L47.5311 26.5776H51.3462V41.2656H48.3463V31.7064H48.2244L44.4379 41.1936H42.3941L38.6077 31.6704H38.4858V41.2656H35.4858V26.5776H35.4882Z" fill="white"/>
<path d="M66.927 33.9216C66.927 35.5224 66.6258 36.8856 66.0234 38.0088C65.421 39.132 64.6035 39.9888 63.5661 40.5792C62.531 41.172 61.3669 41.4648 60.0785 41.4648C58.79 41.4648 57.6116 41.1696 56.5765 40.5768C55.5438 39.984 54.7263 39.1248 54.1287 38.004C53.5287 36.8808 53.2275 35.52 53.2275 33.924C53.2275 32.328 53.5263 30.96 54.1287 29.8344C54.7287 28.7112 55.5438 27.8544 56.5765 27.264C57.6116 26.6736 58.7757 26.3784 60.0785 26.3784C61.3812 26.3784 62.531 26.6736 63.5661 27.264C64.6011 27.8544 65.421 28.7112 66.0234 29.8344C66.6258 30.9576 66.927 32.3208 66.927 33.924V33.9216ZM63.7932 33.9216C63.7932 32.8824 63.6402 32.0088 63.3318 31.296C63.0258 30.5832 62.5932 30.0432 62.0362 29.6736C61.4792 29.3064 60.8267 29.1216 60.0809 29.1216C59.335 29.1216 58.6801 29.3064 58.1231 29.6736C57.5661 30.0408 57.1335 30.5832 56.8275 31.296C56.5191 32.0088 56.3685 32.8824 56.3685 33.9216C56.3685 34.9608 56.5215 35.832 56.8275 36.5472C57.1359 37.26 57.5685 37.8 58.1231 38.1672C58.6801 38.5344 59.3327 38.7192 60.0809 38.7192C60.8291 38.7192 61.4792 38.5344 62.0362 38.1672C62.5956 37.8 63.0258 37.2576 63.3318 36.5472C63.6402 35.8344 63.7932 34.9608 63.7932 33.9216Z" fill="white"/>
<path d="M68.8105 41.2632V26.5752H74.6671C75.7451 26.5752 76.6415 26.736 77.3587 27.0576C78.0782 27.3792 78.6184 27.8208 78.9818 28.3872C79.3427 28.9536 79.5244 29.604 79.5244 30.3408C79.5244 30.9144 79.412 31.4184 79.1826 31.8504C78.9531 32.2824 78.6399 32.6352 78.2431 32.9112C77.8463 33.1848 77.3921 33.3792 76.883 33.4944V33.6384C77.4399 33.6624 77.9611 33.8208 78.4511 34.1112C78.9387 34.404 79.3355 34.812 79.6391 35.3328C79.9427 35.856 80.0981 36.48 80.0981 37.2024C80.0981 37.9824 79.9045 38.676 79.522 39.2856C79.1395 39.8952 78.5754 40.3776 77.8272 40.7304C77.079 41.0832 76.1587 41.2608 75.0615 41.2608H68.8129L68.8105 41.2632ZM71.9037 32.7216H74.1962C74.6193 32.7216 74.9993 32.6472 75.3292 32.496C75.6591 32.3472 75.922 32.1336 76.1157 31.8552C76.3093 31.5768 76.4049 31.2456 76.4049 30.8568C76.4049 30.3264 76.2161 29.8992 75.8431 29.5728C75.4702 29.2464 74.9396 29.0856 74.2535 29.0856H71.9037V32.7216ZM71.9037 38.724H74.4256C75.2862 38.724 75.9149 38.5584 76.3117 38.2272C76.7061 37.896 76.9045 37.452 76.9045 36.8976C76.9045 36.4896 76.8065 36.132 76.6105 35.82C76.4168 35.5104 76.1372 35.2656 75.7786 35.088C75.4177 34.9104 74.9922 34.8216 74.495 34.8216H71.9014V38.724H71.9037Z" fill="white"/>
<path d="M81.3101 41.2632V38.7672L81.7236 38.7336C82.2567 38.6904 82.6869 38.4864 83.0168 38.1216C83.3467 37.7544 83.5905 37.1712 83.7578 36.3624C83.9204 35.556 84.028 34.4736 84.0758 33.1128L84.3172 26.5776H94.247V41.2656H91.2398V29.0664H87.1881L86.961 34.1808C86.8845 35.8248 86.6909 37.1688 86.3777 38.2104C86.067 39.252 85.5698 40.0224 84.8909 40.5192C84.2144 41.016 83.2845 41.2656 82.1108 41.2656H81.3101V41.2632Z" fill="white"/>
<path d="M96.3862 41.2632V26.5752H106.244V29.136H99.4794V32.6376H105.738V35.196H99.4794V38.7024H106.273V41.2632H96.3886H96.3862Z" fill="white"/>
<path d="M108.14 41.2632V26.5752H111.233V32.6352H117.513V26.5752H120.599V41.2632H117.513V35.196H111.233V41.2632H108.14Z" fill="white"/>
<path d="M122.624 41.2632V26.5752H125.717V32.6352H131.996V26.5752H135.082V41.2632H131.996V35.196H125.717V41.2632H122.624Z" fill="white"/>
<path d="M140.26 34.5792H143.597L140.04 41.2632H136.626L140.262 34.5792H140.26ZM148.153 41.2632H145.067V29.1144H142.98C142.385 29.1144 141.893 29.2008 141.498 29.376C141.106 29.5512 140.81 29.8056 140.616 30.1392C140.422 30.4752 140.322 30.8856 140.322 31.3728C140.322 31.86 140.42 32.2584 140.616 32.5848C140.812 32.9112 141.104 33.1536 141.496 33.3168C141.885 33.48 142.375 33.5592 142.968 33.5592H146.324V36.0552H142.466C141.348 36.0552 140.391 35.8704 139.595 35.496C138.799 35.124 138.192 34.5864 137.774 33.8856C137.356 33.1848 137.145 32.3472 137.145 31.3728C137.145 30.3984 137.351 29.556 137.764 28.836C138.175 28.116 138.773 27.5592 139.557 27.1656C140.339 26.772 141.283 26.5728 142.39 26.5728H148.155V41.2608L148.153 41.2632Z" fill="white"/>
<path d="M42.7408 20.8703C38.6221 20.8703 35.7153 17.7839 35.7153 13.3127C35.7153 8.84151 38.6651 5.71191 42.7623 5.71191C46.0658 5.71191 48.4921 7.66311 49.2666 10.8767L46.2977 11.1287C45.7957 9.59511 44.4977 8.63031 42.8053 8.63031C40.5248 8.63031 38.9376 10.4759 38.9376 13.2911C38.9376 16.1063 40.5272 17.9519 42.8053 17.9519C44.4977 17.9519 45.7957 16.9871 46.2977 15.4535L49.2666 15.7055C48.4921 18.9167 46.0682 20.8703 42.7408 20.8703Z" fill="white"/>
<path d="M53.8253 20.8272C52.9887 20.8272 52.152 20.616 51.4421 20.1984L51.9226 17.4888C52.5919 17.8872 53.2397 18.0984 53.7823 18.0984C54.5138 18.0984 55.1425 17.6784 55.5632 16.9008L49.666 5.94238H53.07L57.0237 13.7304L60.454 5.94238H63.7169L58.2596 17.7C57.3392 19.716 55.7711 20.8272 53.8253 20.8272Z" fill="white"/>
<path d="M70.6993 20.8703C66.5806 20.8703 63.6738 17.7839 63.6738 13.3127C63.6738 8.84151 66.6236 5.71191 70.7208 5.71191C74.0243 5.71191 76.4506 7.66311 77.2227 10.8767L74.2538 11.1287C73.7518 9.59511 72.4538 8.63031 70.7614 8.63031C68.4809 8.63031 66.8937 10.4759 66.8937 13.2911C66.8937 16.1063 68.4833 17.9519 70.7614 17.9519C72.4538 17.9519 73.7518 16.9871 74.2538 15.4535L77.2227 15.7055C76.4506 18.9167 74.0243 20.8703 70.6993 20.8703Z" fill="white"/>
<path d="M79.4624 5.94238H91.8184V20.64H88.7659V8.50318H82.515V20.64H79.4624V5.94238Z" fill="white"/>
<path d="M113.268 5.94238V20.6376H110.215V8.50318H105.468V10.0152C105.468 17.9088 104.528 20.8272 101.997 20.8272C101.433 20.8272 100.575 20.6808 99.8623 20.4504L100.073 17.8056C100.386 17.9088 100.783 17.952 100.971 17.952C102.205 17.952 102.583 15.8952 102.583 9.11278V5.94238H113.27H113.268Z" fill="white"/>
<path d="M97.5648 5.94238H94.5122V20.6376H97.5648V5.94238Z" fill="white"/>
<path d="M118.847 13.9008V18.0792H121.378C122.695 18.0792 123.575 17.2176 123.575 15.9792C123.575 14.7408 122.676 13.9008 121.337 13.9008H118.849H118.847ZM115.794 5.94478H118.847V11.34H121.818C124.725 11.34 126.795 13.272 126.795 15.9792C126.795 18.6864 124.725 20.64 121.861 20.64H115.796V5.94238L115.794 5.94478Z" fill="white"/>
<path d="M128.858 5.94238H131.913V11.9064H138.247V5.94238H141.3V20.64H138.247V14.4672H131.913V20.64H128.858V5.94238Z" fill="white"/>
<path d="M143.838 5.94238H153.897V8.50318H146.891V11.8848H153.185V14.4456H146.891V18.0768H154V20.64H143.838V5.94238Z" fill="white"/>
<path d="M23.9041 24V48C10.7903 48 0 37.1664 0 24C0 10.8336 10.7903 0 23.9041 0V24Z" fill="#41CFFF"/>
</g>
<defs>
<clipPath id="clip0_58_25">
<rect width="154" height="48" fill="white"/>
</clipPath>
</defs>
</svg>
